X:204
T:Longford Collector, The
R:reel
H:Michael Coleman changed the title from "The Longford Beggarwoman"
D:Michael Coleman
D:Davy Spillane: Shadow Hunter
Z:id:hn-reel-204
M:C|
K:G
~G3A Bcdg|eB~B2 egdB|GFGA BcdB|AcBA GEDE|
GFGA Bcdg|eB~B2 d2ef|g2af gedB|1 AcBA GEDE:|2 AcBA GED2||
|:gfga gedg|eB~B2 d2ef|g2af gedB|AcBA GED2|
~g3a gedg|eB~B2 d2ef|gbaf gedB|1 AcBA GED2:|2 AcBA GEDE||
P:Variations:
|:~G3A Bd~d2|eB~B2 eBdB|~G3A B2dB|AcBA GEDE|
~G3A ~B3d|eB~B2 d2ef|gbaf gedB|1 AcBA GEDE:|2 AcBA GED2||
|:~g3a gfed|eB~B2 d2ef|gfga gedB|AcBA GED2|
gfga gfed|eB~B2 d2ef|g2af gedB|1 AcBA GED2:|2 AcBA GEDE||

